svgs/solid/circle-calendar.svg

<svg xmlns="http://www.w3.org/2000/svg" viewBox="0 0 512 512"><!--! Font Awesome Pro 6.6.0 by @fontawesome - https://fontawesome.com License - https://fontawesome.com/license (Commercial License) Copyright 2024 Fonticons, Inc. --><path d="M256 512A256 256 0 1 0 256 0a256 256 0 1 0 0 512zM208 96c8.8 0 16 7.2 16 16l0 16 64 0 0-16c0-8.8 7.2-16 16-16s16 7.2 16 16l0 16 32 0c17.7 0 32 14.3 32 32l0 32-256 0 0-32c0-17.7 14.3-32 32-32l32 0 0-16c0-8.8 7.2-16 16-16zM128 352l0-128 256 0 0 128c0 17.7-14.3 32-32 32l-192 0c-17.7 0-32-14.3-32-32z"/></svg>

<svg xmlns="http://www.w3.org/2000/svg" viewBox="0 0 512 512"><!--! Font Awesome Pro 6.4.2 by @fontawesome - https://fontawesome.com License - https://fontawesome.com/license (Commercial License) Copyright 2023 Fonticons, Inc. --><path d="M256 512A256 256 0 1 0 256 0a256 256 0 1 0 0 512zM208 96c8.8 0 16 7.2 16 16v16h64V112c0-8.8 7.2-16 16-16s16 7.2 16 16v16h32c17.7 0 32 14.3 32 32v32H128V160c0-17.7 14.3-32 32-32h32V112c0-8.8 7.2-16 16-16zM128 352V224H384V352c0 17.7-14.3 32-32 32H160c-17.7 0-32-14.3-32-32z"/></svg>
